dist/svg/u1F4DD.svg

<?xml version="1.0" encoding="UTF-8"?><svg id="a" xmlns="http://www.w3.org/2000/svg" viewBox="0 0 40 40"><g><g><path d="M29.832,34.666V5.334c0-1.105-.895-2-2-2H11.499L1.5,13.334v21.332c0,1.105,.895,2,2,2H27.832c1.105,0,2-.895,2-2Z" fill="#e5e9ee" fill-rule="evenodd"/><path d="M9.5,13.334H1.5L11.499,3.334v8c0,1.105-.895,2-2,2Z" fill="#c0c7d1" fill-rule="evenodd"/></g><g><rect x="16.042" y="20.809" width="20.037" height="7.6" transform="translate(-9.768 25.636) rotate(-45)" fill="#fa0"/><path d="M38.05,17.994l-2.218,2.218-5.374-5.374,2.217-2.217c.6-.6,1.572-.6,2.172,0l3.202,3.202c.6,.6,.6,1.572,0,2.172Z" fill="#ff9000" fill-rule="evenodd"/><path d="M15.046,36.154l2.626-.704-2.452-2.453-.704,2.627c-.086,.322,.208,.616,.53,.53Z" fill="#313d4c" fill-rule="evenodd"/><polygon points="15.22 32.997 17.673 35.45 21.664 34.38 16.29 29.007 15.22 32.997" fill="#ffcca8" fill-rule="evenodd"/></g></g><rect x="0" width="40" height="40" fill="none"/></svg>

<svg id="Layer_1" data-name="Layer 1" xmlns="http://www.w3.org/2000/svg" viewBox="0 0 40 40"><defs><style>.cls-1{fill:#e5e9ee;}.cls-1,.cls-2,.cls-4,.cls-5,.cls-6{fill-rule:evenodd;}.cls-2{fill:#c0c7d1;}.cls-3{fill:#fa0;}.cls-4{fill:#ff9000;}.cls-5{fill:#313d4c;}.cls-6{fill:#ffcca8;}.cls-7{fill:none;}</style></defs><path class="cls-1" d="M29.832,34.666V5.334a2,2,0,0,0-2-2H11.5l-10,10V34.666a2,2,0,0,0,2,2H27.832A2,2,0,0,0,29.832,34.666Z"/><path class="cls-2" d="M9.5,13.334h-8l10-10v8A2,2,0,0,1,9.5,13.334Z"/><rect class="cls-3" x="16.042" y="20.809" width="20.037" height="7.6" transform="translate(-9.768 25.636) rotate(-45)"/><path class="cls-4" d="M38.05,17.994l-2.217,2.218-5.374-5.374,2.218-2.218a1.536,1.536,0,0,1,2.171,0l3.2,3.2A1.535,1.535,0,0,1,38.05,17.994Z"/><path class="cls-5" d="M15.046,36.154l2.627-.7L15.22,33l-.7,2.627A.432.432,0,0,0,15.046,36.154Z"/><polygon class="cls-6" points="15.22 32.997 17.673 35.45 21.664 34.38 16.29 29.007 15.22 32.997"/><rect class="cls-7" width="40" height="40"/></svg>
